public/Img/Home/brand__first.svg

<svg width="197" height="40" viewBox="0 0 197 40" fill="none" xmlns="http://www.w3.org/2000/svg">
<g clip-path="url(#clip0_968_544)">
<path d="M30.094 17.6035C29.5463 18.1718 29.1267 18.8575 28.8654 19.612C28.604 20.3665 28.5074 21.1711 28.582 21.9686L28.556 21.9418C28.6329 22.8804 28.5101 23.8249 28.1964 24.7097C27.8826 25.5944 27.3854 26.3978 26.7393 27.0639C26.0933 27.73 25.314 28.2427 24.4559 28.5662C23.5979 28.8898 22.6816 29.0162 21.7712 28.9371L21.7972 28.9639C20.7083 28.8594 19.6144 29.1037 18.6651 29.6635C17.7157 30.2234 16.9569 31.0717 16.4922 32.0924C16.0273 33.1132 15.8793 34.2569 16.0681 35.3677C16.2569 36.4784 16.7734 37.502 17.5471 38.2991C18.3209 39.096 19.3142 39.6277 20.3917 39.8213C21.4691 40.015 22.5783 39.8612 23.568 39.3812C24.5576 38.9011 25.3795 38.1179 25.9217 37.1386C26.4638 36.1592 26.6999 35.0313 26.5975 33.9086L26.625 33.9354C26.5481 32.9967 26.6709 32.0521 26.9847 31.1674C27.2984 30.2827 27.7958 29.4793 28.4418 28.8133C29.0879 28.1472 29.867 27.6345 30.7251 27.3109C31.5832 26.9874 32.4994 26.8608 33.4098 26.9401L33.3823 26.9133C34.2719 26.9958 35.1673 26.8454 35.9855 26.476C36.8037 26.1067 37.5183 25.5305 38.0629 24.8006C38.6075 24.0708 38.9647 23.2111 39.1013 22.3009C39.238 21.3909 39.1494 20.46 38.8441 19.5946C38.539 18.7292 38.0267 17.9572 37.355 17.3502C36.6832 16.7433 35.8738 16.3209 35.0017 16.1224C34.1295 15.9238 33.2228 15.9554 32.3656 16.2144C31.5085 16.4733 30.7286 16.9511 30.0983 17.6035H30.094Z" fill="#1D2130"/>
<path d="M19.4313 25.4503L19.4038 25.4235C20.1776 25.5038 20.959 25.4059 21.6916 25.1368C22.4242 24.8677 23.0896 24.434 23.6397 23.8672C24.1899 23.3005 24.611 22.6148 24.8725 21.8597C25.1341 21.1046 25.2297 20.299 25.1523 19.5011L25.1798 19.5279C25.1029 18.5893 25.2257 17.6446 25.5394 16.7601C25.8532 15.8753 26.3504 15.0719 26.9965 14.4058C27.6425 13.7397 28.4218 13.227 29.2799 12.9035C30.1379 12.5799 31.0542 12.4533 31.9646 12.5326L31.9371 12.5058C33.0261 12.6112 34.1203 12.3677 35.0702 11.8085C36.0202 11.2493 36.7796 10.4015 37.2451 9.38086C37.7105 8.36023 37.8593 7.21641 37.6711 6.10539C37.4829 4.99438 36.9667 3.9703 36.1933 3.17279C35.4197 2.3753 34.4266 1.84323 33.349 1.64915C32.2714 1.45508 31.1619 1.60844 30.1721 2.08834C29.1821 2.56823 28.3599 3.35129 27.8175 4.3307C27.275 5.31011 27.0389 6.43819 27.1412 7.56109L27.1152 7.53277C27.1922 8.47148 27.0697 9.41623 26.7559 10.301C26.4423 11.1858 25.9449 11.9893 25.2988 12.6555C24.6529 13.3217 23.8735 13.8344 23.0153 14.1578C22.1571 14.4812 21.2408 14.6076 20.3304 14.5281L20.3563 14.5564C19.5826 14.4761 18.8011 14.5739 18.0686 14.8431C17.336 15.1122 16.6705 15.5458 16.1204 16.1126C15.5704 16.6793 15.1492 17.3651 14.8876 18.1202C14.6261 18.8753 14.5305 19.6809 14.6079 20.4788L14.5819 20.4519C14.6585 21.3905 14.5355 22.335 14.2216 23.2196C13.9077 24.1042 13.4105 24.9075 12.7645 25.5735C12.1185 26.2396 11.3394 26.7523 10.4815 27.0758C9.62351 27.3995 8.70742 27.5263 7.79708 27.4472L7.82309 27.474C6.73399 27.3686 5.63986 27.6122 4.68992 28.1713C3.73998 28.7306 2.98049 29.5784 2.51504 30.599C2.04959 31.6197 1.90083 32.7635 2.08907 33.8745C2.2773 34.9855 2.79337 36.0096 3.56687 36.8071C4.34036 37.6046 5.33364 38.1366 6.41121 38.3308C7.48878 38.5248 8.59819 38.3715 9.58811 37.8916C10.578 37.4117 11.4003 36.6286 11.9426 35.6492C12.4851 34.6698 12.7212 33.5417 12.619 32.4188L12.6465 32.4456C12.5696 31.507 12.6924 30.5623 13.0062 29.6777C13.3199 28.793 13.8173 27.9896 14.4633 27.3235C15.1094 26.6573 15.8885 26.1446 16.7466 25.8211C17.6046 25.4976 18.5209 25.3711 19.4313 25.4503Z" fill="#1D2130"/>
<path d="M9.7433 22.4595C10.2912 21.8914 10.7106 21.2056 10.9717 20.451C11.2328 19.6964 11.3291 18.8918 11.2538 18.0944L11.2812 18.1213C11.2043 17.1823 11.3271 16.2375 11.641 15.3525C11.955 14.4676 12.4526 13.6641 13.0989 12.9978C13.7453 12.3317 14.5249 11.8191 15.3833 11.4958C16.2418 11.1725 17.1583 11.0463 18.0689 11.126L18.0414 11.0991C19.1301 11.2043 20.2239 10.9607 21.1733 10.4015C22.1229 9.84224 22.882 8.99469 23.3472 7.97437C23.8123 6.95405 23.9609 5.81064 23.7727 4.70004C23.5845 3.58945 23.0686 2.56576 22.2954 1.76855C21.5221 0.971347 20.5293 0.439442 19.452 0.245372C18.3749 0.0513041 17.2659 0.20452 16.2763 0.684124C15.2867 1.16373 14.4647 1.94637 13.9222 2.92534C13.3799 3.90429 13.1436 5.03191 13.2455 6.15442L13.2195 6.1276C13.2964 7.06624 13.1736 8.01088 12.8598 8.89556C12.5461 9.78024 12.0488 10.5837 11.4027 11.2497C10.7567 11.9158 9.97746 12.4285 9.1194 12.7521C8.26134 13.0756 7.34514 13.2022 6.43474 13.1229L6.46076 13.1497C5.5712 13.0675 4.6759 13.2181 3.85783 13.5876C3.03974 13.957 2.32534 14.5334 1.78084 15.2634C1.23633 15.9933 0.879334 16.853 0.742922 17.763C0.60651 18.6731 0.695098 19.604 1.00048 20.4693C1.30585 21.3345 1.81815 22.1064 2.48989 22.7133C3.16162 23.3202 3.97105 23.7424 4.84319 23.9409C5.71532 24.1394 6.62192 24.1076 7.47901 23.8487C8.33609 23.5897 9.1159 23.1118 9.7462 22.4595H9.7433Z" fill="#1D2130"/>
<path d="M54.5176 7.59521H58.8105V29.1341H54.5176V7.59521Z" fill="#1D2130"/>
<path d="M61.2423 21.7594C61.2362 20.2115 61.6759 18.6967 62.5056 17.4067C63.3353 16.1167 64.5177 15.1095 65.9029 14.513C67.2882 13.9163 68.8141 13.757 70.2873 14.0552C71.7604 14.3533 73.1147 15.0955 74.1783 16.1879C75.242 17.2801 75.9674 18.6734 76.2625 20.1911C76.5576 21.7087 76.4092 23.2826 75.836 24.7132C75.2629 26.1439 74.2909 27.367 73.043 28.2275C71.7951 29.0881 70.3276 29.5475 68.8264 29.5475C67.8298 29.5593 66.8409 29.3661 65.9177 28.9792C64.9944 28.5924 64.1552 28.0197 63.449 27.2945C62.7429 26.5694 62.1841 25.7065 61.8051 24.756C61.4262 23.8057 61.2348 22.787 61.2423 21.7594ZM72.1176 21.7594C72.0997 21.0923 71.8914 20.4453 71.5188 19.8994C71.1463 19.3537 70.6259 18.9332 70.0229 18.6906C69.4197 18.448 68.7607 18.3941 68.128 18.5357C67.4954 18.6772 66.9172 19.0079 66.4659 19.4863C66.0145 19.9647 65.71 20.5698 65.5902 21.2257C65.4705 21.8817 65.5411 22.5594 65.793 23.1743C66.0448 23.7891 66.4669 24.3138 67.0065 24.6826C67.546 25.0514 68.1791 25.2483 68.8264 25.2481C69.2697 25.2604 69.7107 25.1778 70.1215 25.0054C70.5324 24.8332 70.9041 24.575 71.2133 24.2472C71.5226 23.9194 71.7625 23.5292 71.9182 23.101C72.0739 22.6728 72.1418 22.216 72.1176 21.7594Z" fill="#1D2130"/>
<path d="M93.5202 14.3817V28.3903C93.5202 33.347 89.7708 35.4423 85.965 35.4423C84.625 35.5457 83.2833 35.2667 82.0869 34.6357C80.8907 34.0048 79.886 33.0464 79.1831 31.8656L82.8457 29.6824C83.1412 30.2978 83.6119 30.8057 84.1949 31.1377C84.7779 31.4698 85.4455 31.6104 86.108 31.5408C86.5316 31.6013 86.9629 31.5628 87.37 31.4282C87.7771 31.2937 88.1497 31.0664 88.4602 30.7634C88.7706 30.4603 89.0111 30.0891 89.1637 29.6774C89.3162 29.2656 89.377 28.8236 89.3415 28.3843V27.0357C88.8388 27.6698 88.199 28.1737 87.4733 28.5068C86.7476 28.8398 85.9562 28.9929 85.1628 28.9536C83.2748 28.8923 81.484 28.0758 80.1696 26.6771C78.8551 25.2786 78.1201 23.4074 78.1201 21.4598C78.1201 19.5123 78.8551 17.6411 80.1696 16.2424C81.484 14.8438 83.2748 14.0274 85.1628 13.966C85.9562 13.9268 86.7476 14.0798 87.4733 14.4129C88.199 14.746 88.8388 15.2498 89.3415 15.884V14.3788L93.5202 14.3817ZM89.343 21.4621C89.3719 20.7488 89.193 20.0429 88.8294 19.4353C88.4658 18.8276 87.9342 18.3461 87.303 18.0526C86.6718 17.7591 85.9698 17.6671 85.2874 17.7884C84.6051 17.9097 83.9736 18.2388 83.4741 18.7333C82.9747 19.2278 82.6302 19.8651 82.485 20.5631C82.3399 21.2613 82.4006 21.9881 82.6595 22.6503C82.9184 23.3124 83.3636 23.8795 83.9377 24.2787C84.5119 24.6777 85.1887 24.8906 85.8812 24.8897C86.3322 24.9221 86.7848 24.8568 87.2099 24.698C87.635 24.5391 88.0231 24.2902 88.3492 23.9674C88.6754 23.6444 88.9322 23.2547 89.1034 22.8231C89.2745 22.3917 89.3562 21.9281 89.343 21.4621Z" fill="#1D2130"/>
<path d="M95.9513 21.7594C95.9453 20.2115 96.3849 18.6967 97.2147 17.4067C98.0444 16.1167 99.2267 15.1095 100.612 14.513C101.997 13.9163 103.523 13.757 104.996 14.0552C106.47 14.3533 107.824 15.0955 108.887 16.1879C109.951 17.2801 110.676 18.6734 110.972 20.1911C111.267 21.7087 111.118 23.2826 110.545 24.7132C109.972 26.1439 109 27.367 107.752 28.2275C106.504 29.0881 105.037 29.5475 103.535 29.5475C102.539 29.5593 101.55 29.3661 100.627 28.9792C99.7035 28.5924 98.8642 28.0197 98.1581 27.2945C97.452 26.5694 96.8931 25.7065 96.5142 24.756C96.1353 23.8057 95.9439 22.787 95.9513 21.7594ZM106.827 21.7594C106.809 21.0923 106.601 20.4453 106.228 19.8994C105.855 19.3537 105.335 18.9332 104.732 18.6906C104.129 18.448 103.47 18.3941 102.837 18.5357C102.204 18.6772 101.626 19.0079 101.175 19.4863C100.724 19.9647 100.419 20.5698 100.299 21.2257C100.18 21.8817 100.25 22.5594 100.502 23.1743C100.754 23.7891 101.176 24.3138 101.716 24.6826C102.255 25.0514 102.888 25.2483 103.535 25.2481C103.979 25.2604 104.42 25.1778 104.831 25.0054C105.241 24.8332 105.613 24.575 105.922 24.2472C106.232 23.9194 106.472 23.5292 106.627 23.101C106.783 22.6728 106.851 22.216 106.827 21.7594Z" fill="#1D2130"/>
<path d="M113.122 10.4279C113.122 9.90265 113.273 9.3892 113.556 8.95248C113.839 8.51575 114.241 8.17537 114.712 7.97437C115.183 7.77337 115.701 7.72078 116.2 7.82325C116.7 7.92572 117.159 8.17865 117.519 8.55005C117.879 8.92145 118.125 9.39464 118.224 9.90979C118.323 10.4249 118.273 10.9589 118.077 11.4442C117.882 11.9295 117.552 12.3442 117.129 12.6359C116.705 12.9278 116.207 13.0836 115.697 13.0836C115.017 13.0765 114.366 12.7945 113.884 12.298C113.402 11.8015 113.129 11.13 113.122 10.4279ZM113.556 14.3816H117.85V29.1352H113.55L113.556 14.3816Z" fill="#1D2130"/>
<path d="M136.386 21.759C136.435 22.7341 136.298 23.7096 135.98 24.6295C135.663 25.5495 135.172 26.3958 134.536 27.1195C133.901 27.8433 133.132 28.4303 132.277 28.8469C131.42 29.2636 130.492 29.5015 129.546 29.5472C128.751 29.5919 127.955 29.4536 127.218 29.1422C126.481 28.8308 125.819 28.3542 125.283 27.7469V35.0359H120.99V14.3822H125.283V15.7681C125.821 15.1613 126.481 14.685 127.219 14.374C127.955 14.0628 128.751 13.9247 129.546 13.9694C130.492 14.0148 131.42 14.2527 132.277 14.6693C133.133 15.086 133.902 15.6732 134.537 16.3972C135.173 17.1212 135.664 17.9676 135.982 18.8878C136.299 19.808 136.436 20.7838 136.386 21.759ZM132.093 21.759C132.077 21.0686 131.862 20.3985 131.478 19.8327C131.094 19.267 130.556 18.8307 129.933 18.5785C129.309 18.3261 128.626 18.2692 127.972 18.4145C127.317 18.5599 126.718 18.9012 126.25 19.3956C125.783 19.8901 125.467 20.5159 125.342 21.1946C125.218 21.8733 125.29 22.5747 125.55 23.2112C125.811 23.8475 126.248 24.3907 126.805 24.7726C127.364 25.1545 128.019 25.3581 128.689 25.358C129.148 25.3792 129.608 25.2998 130.036 25.1252C130.464 24.9505 130.851 24.6846 131.173 24.3447C131.495 24.0049 131.742 23.5989 131.901 23.1533C132.059 22.7076 132.125 22.2326 132.093 21.759Z" fill="#1D2130"/>
<path d="M149.631 24.7082C149.631 28.1015 146.771 29.5472 143.681 29.5472C142.433 29.6638 141.179 29.3915 140.082 28.7655C138.985 28.1396 138.095 27.1888 137.528 26.036L141.247 23.8528C141.398 24.3856 141.721 24.8492 142.163 25.166C142.605 25.4827 143.138 25.6336 143.676 25.5934C144.705 25.5934 145.22 25.2686 145.22 24.6799C145.22 23.0555 138.18 23.9125 138.18 18.8082C138.18 15.5907 140.814 13.9693 143.79 13.9693C144.909 13.9328 146.016 14.2065 146.998 14.7616C147.979 15.3168 148.798 16.1332 149.369 17.1258L145.706 19.1614C145.546 18.7749 145.278 18.4459 144.937 18.2151C144.596 17.9842 144.198 17.8619 143.79 17.8634C143.046 17.8634 142.586 18.1614 142.586 18.6891C142.592 20.3715 149.631 19.2494 149.631 24.7082Z" fill="#1D2130"/>
<path d="M165.316 14.3823V29.136H161.022V27.7486C160.528 28.3608 159.899 28.8431 159.188 29.1561C158.477 29.469 157.704 29.6036 156.932 29.5488C154.041 29.5488 151.584 27.4251 151.584 23.4387V14.3823H155.877V22.7904C155.842 23.1419 155.879 23.497 155.991 23.8314C156.102 24.1657 156.281 24.4713 156.518 24.7266C156.755 24.9819 157.043 25.1809 157.362 25.3097C157.682 25.4387 158.024 25.4943 158.366 25.4729C159.94 25.4729 161.027 24.5296 161.027 22.4343V14.3868L165.316 14.3823Z" fill="#1D2130"/>
<path d="M189.93 20.0771V29.135H185.637V20.4602C185.637 18.9847 184.95 18.0415 183.577 18.0415C182.147 18.0415 181.344 19.0742 181.344 20.8149V29.135H177.053V20.4602C177.053 18.9847 176.366 18.0415 174.992 18.0415C173.56 18.0415 172.76 19.0742 172.76 20.8149V29.135H168.467V14.3813H172.76V15.7375C173.205 15.1358 173.789 14.6587 174.459 14.3497C175.129 14.0407 175.863 13.9097 176.595 13.9685C177.329 13.9315 178.061 14.0913 178.717 14.4324C179.374 14.7735 179.934 15.2843 180.343 15.9149C180.818 15.2551 181.448 14.7305 182.174 14.3902C182.9 14.0498 183.697 13.9047 184.492 13.9685C187.778 13.97 189.93 16.3887 189.93 20.0771Z" fill="#1D2130"/>
<path d="M193.562 14.2913C195.321 14.2913 196.748 12.8208 196.748 11.0067C196.748 9.19271 195.321 7.72217 193.562 7.72217C191.803 7.72217 190.376 9.19271 190.376 11.0067C190.376 12.8208 191.803 14.2913 193.562 14.2913Z" fill="#1D2130"/>
</g>
<defs>
<clipPath id="clip0_968_544">
<rect width="196.967" height="40" fill="white"/>
</clipPath>
</defs>
</svg>

<svg width="197" height="40" fill="none" xmlns="http://www.w3.org/2000/svg"><g clip-path="url(#a)" fill="#1D2130"><path d="M30.094 17.604a5.475 5.475 0 0 0-1.229 2.008 5.608 5.608 0 0 0-.283 2.357l-.026-.027a6.66 6.66 0 0 1-.36 2.768 6.5 6.5 0 0 1-1.457 2.354 6.258 6.258 0 0 1-2.283 1.502 6.105 6.105 0 0 1-2.685.371l.026.027a5.185 5.185 0 0 0-3.132.7 5.421 5.421 0 0 0-2.173 2.428 5.634 5.634 0 0 0-.424 3.276 5.54 5.54 0 0 0 1.48 2.931 5.265 5.265 0 0 0 2.844 1.522 5.173 5.173 0 0 0 3.176-.44 5.384 5.384 0 0 0 2.354-2.242c.542-.98.778-2.108.675-3.23l.028.026a6.659 6.659 0 0 1 .36-2.768 6.5 6.5 0 0 1 1.457-2.354 6.26 6.26 0 0 1 2.283-1.502 6.104 6.104 0 0 1 2.685-.37l-.028-.028a5.163 5.163 0 0 0 2.604-.437 5.332 5.332 0 0 0 2.077-1.675 5.56 5.56 0 0 0 1.038-2.5c.137-.91.048-1.841-.257-2.706a5.478 5.478 0 0 0-1.489-2.245 5.25 5.25 0 0 0-2.353-1.228 5.151 5.151 0 0 0-2.636.092 5.276 5.276 0 0 0-2.268 1.39h-.004ZM19.431 25.45l-.027-.026a5.103 5.103 0 0 0 2.288-.287 5.229 5.229 0 0 0 1.948-1.27 5.433 5.433 0 0 0 1.232-2.007c.262-.755.358-1.561.28-2.359l.028.027a6.66 6.66 0 0 1 .36-2.768 6.5 6.5 0 0 1 1.457-2.354 6.258 6.258 0 0 1 2.283-1.503 6.103 6.103 0 0 1 2.685-.37l-.028-.027a5.185 5.185 0 0 0 3.133-.697 5.42 5.42 0 0 0 2.175-2.428 5.636 5.636 0 0 0 .426-3.276 5.54 5.54 0 0 0-1.478-2.932 5.265 5.265 0 0 0-2.844-1.524 5.172 5.172 0 0 0-3.177.44 5.382 5.382 0 0 0-2.355 2.242 5.62 5.62 0 0 0-.676 3.23l-.026-.028a6.658 6.658 0 0 1-.36 2.768 6.5 6.5 0 0 1-1.456 2.354 6.254 6.254 0 0 1-2.284 1.503 6.103 6.103 0 0 1-2.685.37l.026.028a5.101 5.101 0 0 0-2.287.287 5.229 5.229 0 0 0-1.949 1.27 5.437 5.437 0 0 0-1.232 2.007 5.569 5.569 0 0 0-.28 2.359l-.026-.027a6.661 6.661 0 0 1-.36 2.768 6.502 6.502 0 0 1-1.457 2.354 6.258 6.258 0 0 1-2.284 1.502 6.103 6.103 0 0 1-2.684.371l.026.027a5.186 5.186 0 0 0-3.133.697A5.421 5.421 0 0 0 2.515 30.6a5.635 5.635 0 0 0-.426 3.275 5.54 5.54 0 0 0 1.478 2.933 5.265 5.265 0 0 0 2.844 1.524 5.173 5.173 0 0 0 3.177-.44 5.382 5.382 0 0 0 2.355-2.242c.542-.98.778-2.107.676-3.23l.027.027a6.658 6.658 0 0 1 .36-2.768 6.5 6.5 0 0 1 1.457-2.355 6.258 6.258 0 0 1 2.284-1.502 6.105 6.105 0 0 1 2.684-.37ZM9.743 22.46a5.467 5.467 0 0 0 1.229-2.009 5.6 5.6 0 0 0 .282-2.357l.027.027a6.661 6.661 0 0 1 .36-2.768 6.505 6.505 0 0 1 1.458-2.355 6.26 6.26 0 0 1 2.284-1.502 6.105 6.105 0 0 1 2.686-.37l-.028-.027a5.183 5.183 0 0 0 3.132-.697 5.42 5.42 0 0 0 2.174-2.428 5.634 5.634 0 0 0 .426-3.274 5.539 5.539 0 0 0-1.478-2.931A5.263 5.263 0 0 0 19.452.245a5.17 5.17 0 0 0-3.176.44 5.382 5.382 0 0 0-2.354 2.24 5.622 5.622 0 0 0-.677 3.23l-.025-.027a6.659 6.659 0 0 1-.36 2.768 6.499 6.499 0 0 1-1.457 2.354 6.26 6.26 0 0 1-2.284 1.502 6.104 6.104 0 0 1-2.684.37l.026.028a5.164 5.164 0 0 0-2.603.438 5.332 5.332 0 0 0-2.077 1.675 5.559 5.559 0 0 0-1.038 2.5A5.631 5.631 0 0 0 1 20.469a5.48 5.48 0 0 0 1.49 2.244 5.249 5.249 0 0 0 2.353 1.228 5.152 5.152 0 0 0 2.636-.092 5.278 5.278 0 0 0 2.267-1.39h-.003ZM54.518 7.595h4.292v21.54h-4.292V7.594ZM61.242 21.76a7.993 7.993 0 0 1 1.264-4.353 7.64 7.64 0 0 1 3.397-2.894 7.372 7.372 0 0 1 4.384-.458 7.514 7.514 0 0 1 3.891 2.133 7.896 7.896 0 0 1 2.085 4.003 8.044 8.044 0 0 1-.427 4.522 7.772 7.772 0 0 1-2.793 3.514 7.423 7.423 0 0 1-4.217 1.32 7.299 7.299 0 0 1-2.908-.568 7.484 7.484 0 0 1-2.469-1.684 7.753 7.753 0 0 1-1.644-2.539 7.938 7.938 0 0 1-.563-2.997Zm10.876 0a3.466 3.466 0 0 0-.6-1.86 3.31 3.31 0 0 0-1.495-1.21 3.2 3.2 0 0 0-1.895-.154 3.267 3.267 0 0 0-1.662.95 3.432 3.432 0 0 0-.876 1.74c-.12.656-.049 1.333.203 1.948s.674 1.14 1.213 1.509c.54.368 1.173.565 1.82.565.444.012.885-.07 1.296-.243.41-.172.782-.43 1.091-.758.31-.328.55-.718.705-1.146.156-.428.224-.885.2-1.342ZM93.52 14.382V28.39c0 4.957-3.75 7.052-7.555 7.052a7.13 7.13 0 0 1-3.878-.806 7.409 7.409 0 0 1-2.904-2.77l3.663-2.184a3.329 3.329 0 0 0 1.349 1.456c.583.332 1.25.472 1.913.403.424.06.855.022 1.262-.113.407-.134.78-.362 1.09-.665.31-.303.551-.674.704-1.086.152-.411.213-.853.177-1.293v-1.348a5.104 5.104 0 0 1-1.868 1.47 4.95 4.95 0 0 1-2.31.448 7.172 7.172 0 0 1-4.993-2.277 7.62 7.62 0 0 1-2.05-5.217c0-1.948.735-3.819 2.05-5.218a7.173 7.173 0 0 1 4.993-2.276 4.95 4.95 0 0 1 2.31.447 5.103 5.103 0 0 1 1.868 1.471v-1.505l4.18.003Zm-4.177 7.08a3.662 3.662 0 0 0-.514-2.027 3.505 3.505 0 0 0-1.526-1.382 3.374 3.374 0 0 0-2.016-.265 3.432 3.432 0 0 0-1.813.945 3.608 3.608 0 0 0-.989 1.83 3.681 3.681 0 0 0 .174 2.087c.26.662.705 1.23 1.279 1.629a3.396 3.396 0 0 0 1.943.61 3.15 3.15 0 0 0 1.329-.191 3.226 3.226 0 0 0 1.14-.73c.325-.324.582-.713.753-1.145a3.43 3.43 0 0 0 .24-1.36ZM95.951 21.76a7.993 7.993 0 0 1 1.264-4.353 7.64 7.64 0 0 1 3.397-2.894 7.37 7.37 0 0 1 4.384-.458 7.508 7.508 0 0 1 3.891 2.133 7.902 7.902 0 0 1 2.085 4.003 8.047 8.047 0 0 1-.427 4.522 7.77 7.77 0 0 1-2.793 3.514 7.423 7.423 0 0 1-4.217 1.32 7.297 7.297 0 0 1-2.908-.568 7.482 7.482 0 0 1-2.469-1.684 7.75 7.75 0 0 1-1.644-2.539 7.94 7.94 0 0 1-.563-2.997Zm10.876 0a3.464 3.464 0 0 0-.599-1.86 3.314 3.314 0 0 0-1.496-1.21 3.2 3.2 0 0 0-1.895-.154 3.264 3.264 0 0 0-1.662.95 3.438 3.438 0 0 0-.876 1.74 3.498 3.498 0 0 0 .203 1.948c.252.615.674 1.14 1.214 1.509a3.218 3.218 0 0 0 1.819.565c.444.012.885-.07 1.296-.243.41-.172.782-.43 1.091-.758.31-.328.55-.718.705-1.146a3.4 3.4 0 0 0 .2-1.342ZM113.122 10.428c0-.525.151-1.039.434-1.476a2.593 2.593 0 0 1 1.156-.978 2.504 2.504 0 0 1 1.488-.15c.5.102.959.355 1.319.726s.606.845.705 1.36c.099.515.049 1.049-.147 1.534-.195.486-.525.9-.948 1.192a2.523 2.523 0 0 1-1.432.448 2.565 2.565 0 0 1-1.813-.786 2.724 2.724 0 0 1-.762-1.87Zm.434 3.954h4.294v14.753h-4.3l.006-14.753ZM136.386 21.759a7.619 7.619 0 0 1-.406 2.87 7.446 7.446 0 0 1-1.444 2.49 7.208 7.208 0 0 1-2.259 1.728 7.017 7.017 0 0 1-2.731.7 5.227 5.227 0 0 1-2.328-.405 5.372 5.372 0 0 1-1.935-1.395v7.289h-4.293V14.382h4.293v1.386a5.382 5.382 0 0 1 1.936-1.394 5.222 5.222 0 0 1 2.327-.405 7.013 7.013 0 0 1 2.731.7 7.201 7.201 0 0 1 2.26 1.728 7.47 7.47 0 0 1 1.445 2.49c.317.921.454 1.897.404 2.872Zm-4.293 0a3.581 3.581 0 0 0-.615-1.926 3.424 3.424 0 0 0-1.545-1.255 3.311 3.311 0 0 0-1.961-.163 3.382 3.382 0 0 0-1.722.98 3.559 3.559 0 0 0-.908 1.8 3.619 3.619 0 0 0 .208 2.016c.261.637.698 1.18 1.255 1.562a3.337 3.337 0 0 0 1.884.585 3.18 3.18 0 0 0 1.347-.233c.428-.174.815-.44 1.137-.78.322-.34.569-.746.728-1.192.158-.445.224-.92.192-1.394ZM149.631 24.708c0 3.394-2.86 4.84-5.95 4.84a6.109 6.109 0 0 1-3.599-.782 6.375 6.375 0 0 1-2.554-2.73l3.719-2.183c.151.533.474.996.916 1.313.442.317.975.468 1.513.427 1.029 0 1.544-.324 1.544-.913 0-1.625-7.04-.767-7.04-5.872 0-3.217 2.634-4.839 5.61-4.839a6.108 6.108 0 0 1 3.208.793 6.349 6.349 0 0 1 2.371 2.364l-3.663 2.035a2.121 2.121 0 0 0-.769-.946 2.03 2.03 0 0 0-1.147-.352c-.744 0-1.204.298-1.204.826.006 1.683 7.045.56 7.045 6.02ZM165.316 14.382v14.754h-4.294v-1.387a4.891 4.891 0 0 1-1.834 1.407 4.76 4.76 0 0 1-2.256.393c-2.891 0-5.348-2.124-5.348-6.11v-9.057h4.293v8.408a2.498 2.498 0 0 0 .641 1.937c.237.255.525.454.844.583.32.129.662.184 1.004.163 1.574 0 2.661-.943 2.661-3.039v-8.047l4.289-.005ZM189.93 20.077v9.058h-4.293V20.46c0-1.475-.687-2.419-2.06-2.419-1.43 0-2.233 1.033-2.233 2.774v8.32h-4.291V20.46c0-1.475-.687-2.419-2.061-2.419-1.432 0-2.232 1.033-2.232 2.774v8.32h-4.293V14.381h4.293v1.357a4.416 4.416 0 0 1 1.699-1.388 4.277 4.277 0 0 1 2.136-.381 4.146 4.146 0 0 1 2.122.463 4.307 4.307 0 0 1 1.626 1.483 4.736 4.736 0 0 1 1.831-1.525 4.59 4.59 0 0 1 2.318-.421c3.286.001 5.438 2.42 5.438 6.108ZM193.562 14.291c1.759 0 3.186-1.47 3.186-3.284 0-1.814-1.427-3.285-3.186-3.285s-3.186 1.47-3.186 3.285c0 1.814 1.427 3.284 3.186 3.284Z"/></g><defs><clipPath id="a"><path fill="#fff" d="M0 0h196.967v40H0z"/></clipPath></defs></svg>
